_inc/systems/logos/arcade.svg

<svg xmlns="http://www.w3.org/2000/svg" viewBox="0 0 465 96.2"><path d="M203.8 96.2c-9.6 0-18.5-2.7-25.8-8v7h-41.5l-4.2-6.4-1.2 6.4H62.4l-1.6-10.5h-4.1l-5.2 10.4H0l49.7-94h44.1L97 19.3l3.2-18.2h46.3C158.3 1.1 169 7 175 16.6l2-2A55.8 55.8 0 0 1 215 0c13.8 0 26.3 5.3 35.1 14.9l.6.7L258.4 1h44.1l3.2 18.2L308.9 1h42.3c12.3 0 23.1 4.2 30.8 11.9L384.1 1H465l-8.1 45.1h-7l-.7 4.1h7l-7.8 45h-80.9l1.2-7.2c-8.2 4.7-18.1 7.2-28.5 7.2h-69l-1.6-10.4h-4.1l-5.2 10.4h-45.6c-3.6.6-7.3 1-10.9 1M175.6 83l2.1 1.7c7.2 5.9 16.2 9 26.2 9 3.6 0 7-.3 10.5-1h44.4l5.2-10.4h7.8l1.6 10.4h66.8c11 0 21.3-2.9 29.6-8.3l2.4-1.6-1.7 9.9h75.9l7-40h-7l1.6-9h7l7.1-40h-75.9l-2.8 14.9-1.7-2c-7.3-8.4-18.1-13-30.6-13h-40.3l-5.2 30.2-5.3-30.1h-40.5l-8.6 16.4-3-3.2C239.8 7.8 228.1 2.8 215 2.8c-13.7 0-26.6 5-36.4 13.9q-1.5 1.35-3 3l-1.2 1.2-.8-1.5c-5.3-9.7-15.7-15.7-27.2-15.7h-44.2l-5.5 30.1-5.3-30.1H51l-47 89h45.9l5.2-10.4h7.8l1.6 10.4H129l1.8-10.5 6.9 10.5h37.7V83z" style="fill:#fff"/><path d="m57.4 14.2-35.9 68h22l5.2-10.4H72l1.6 10.4h21l-11.8-68zm-.6 41.5 10-20 3 20zm110-21.7c0-11.9-9.3-19.8-20.4-19.8H111l-12 68h21.4l4.3-24.4h2.9l16 24.4h21.5v-5l-15.7-20.9c10.1-3.1 17.4-11.1 17.4-22.3m-28.9 9.6h-10.8l1.8-10.4h10.9c3.2 0 4.4 2.3 4.4 4.4.1 2.7-2 6-6.3 6m87.3 12.7c-4.5 3-9.7 6.6-17.2 6.6-8 0-12.3-5.8-12.3-12.5 0-8.9 7.2-17.1 17.5-17.1 7.5 0 11.6 2.8 15 5.8l12.2-15.3c-5.5-6-14-10.7-25.5-10.7-22.6 0-41.5 16.7-41.5 38.8 0 17.9 12.4 31.2 30.4 31.2 11.5 0 20.7-4 28.2-10zm40.9-42.1-35.9 68h22l5.2-10.4h23.3l1.6 10.4h21l-11.9-68zm-.7 41.5 10-20 3 20zM351 14.2h-31.4l-12 68h32.5c22.3 0 40.2-14.1 40.2-39.5 0-17.8-12.1-28.5-29.3-28.5m-9 49h-9.6l5.3-30h9.6c6.4 0 9.5 4.2 9.5 10.9-.1 11.2-4.9 19.1-14.8 19.1m92.7-6.5 3.2-17.5h-27.1l1-6.1H446l3.4-18.9h-54.5l-12 68h54.5l3.3-19h-34.2l1.2-6.5z" style="fill:#fff"/></svg>

<?xml version="1.0" encoding="utf-8"?>
<svg version="1.0" id="Layer_1" x="0px" y="0px" viewBox="0 0 465 96.2" enable-background="new 0 0 474.7 169.1" xmlns="http://www.w3.org/2000/svg">
  <path d="M 203.8 96.2 C 194.2 96.2 185.3 93.5 178 88.2 L 178 95.2 L 136.5 95.2 L 132.3 88.8 L 131.1 95.2 L 62.4 95.2 L 60.8 84.7 L 56.7 84.7 L 51.5 95.1 L 0 95.1 L 49.7 1.1 L 93.8 1.1 L 97 19.3 L 100.2 1.1 L 146.5 1.1 C 158.3 1.1 169 7 175 16.6 C 175.7 15.9 176.3 15.3 177 14.6 C 187.2 5.2 200.7 0 215 0 C 228.8 0 241.3 5.3 250.1 14.9 L 250.7 15.6 L 258.4 1 L 302.5 1 L 305.7 19.2 L 308.9 1 L 351.2 1 C 363.5 1 374.3 5.2 382 12.9 L 384.1 1 L 465 1 L 456.9 46.1 L 449.9 46.1 L 449.2 50.2 L 456.2 50.2 L 448.4 95.2 L 367.5 95.2 L 368.7 88 C 360.5 92.7 350.6 95.2 340.2 95.2 L 271.2 95.2 L 269.6 84.8 L 265.5 84.8 L 260.3 95.2 L 214.7 95.2 C 211.1 95.8 207.4 96.2 203.8 96.2 L 203.8 96.2 Z M 175.6 83 L 177.7 84.7 C 184.9 90.6 193.9 93.7 203.9 93.7 C 207.5 93.7 210.9 93.4 214.4 92.7 L 214.6 92.7 L 258.8 92.7 L 264 82.3 L 271.8 82.3 L 273.4 92.7 L 340.2 92.7 C 351.2 92.7 361.5 89.8 369.8 84.4 L 372.2 82.8 L 370.5 92.7 L 446.4 92.7 L 453.4 52.7 L 446.4 52.7 L 448 43.7 L 455 43.7 L 462.1 3.7 L 386.2 3.7 L 383.4 18.6 L 381.7 16.6 C 374.4 8.2 363.6 3.6 351.1 3.6 L 310.8 3.6 L 305.6 33.8 L 300.3 3.7 L 259.8 3.7 L 251.2 20.1 L 248.2 16.9 C 239.8 7.8 228.1 2.8 215 2.8 C 201.3 2.8 188.4 7.8 178.6 16.7 C 177.6 17.6 176.6 18.6 175.6 19.7 L 174.4 20.9 L 173.6 19.4 C 168.3 9.7 157.9 3.7 146.4 3.7 L 102.2 3.7 L 96.7 33.8 L 91.4 3.7 L 51 3.7 L 4 92.7 L 49.9 92.7 L 55.1 82.3 L 62.9 82.3 L 64.5 92.7 L 129 92.7 L 130.8 82.2 L 137.7 92.7 L 175.4 92.7 L 175.4 83 C 175.4 83 175.6 83 175.6 83 Z" id="path2" style="fill:#ffffff"/>
  <path d="M 57.4 14.2 L 21.5 82.2 L 43.5 82.2 L 48.7 71.8 L 72 71.8 L 73.6 82.2 L 94.6 82.2 L 82.8 14.2 C 82.8 14.2 57.4 14.2 57.4 14.2 L 57.4 14.2 Z M 56.8 55.7 L 66.8 35.7 L 69.8 55.7 L 56.8 55.7 Z" id="path6" style="fill:#ffffff"/>
  <path d="M 166.8 34 C 166.8 22.1 157.5 14.2 146.4 14.2 L 111 14.2 L 99 82.2 L 120.4 82.2 L 124.7 57.8 L 127.6 57.8 L 143.6 82.2 L 165.1 82.2 L 165.1 77.2 L 149.4 56.3 C 159.5 53.2 166.8 45.2 166.8 34 L 166.8 34 Z M 137.9 43.6 L 127.1 43.6 L 128.9 33.2 L 139.8 33.2 C 143 33.2 144.2 35.5 144.2 37.6 C 144.3 40.3 142.2 43.6 137.9 43.6 Z" id="path10" style="fill:#ffffff"/>
  <path d="M 225.2 56.3 C 220.7 59.3 215.5 62.9 208 62.9 C 200 62.9 195.7 57.1 195.7 50.4 C 195.7 41.5 202.9 33.3 213.2 33.3 C 220.7 33.3 224.8 36.1 228.2 39.1 L 240.4 23.8 C 234.9 17.8 226.4 13.1 214.9 13.1 C 192.3 13.1 173.4 29.8 173.4 51.9 C 173.4 69.8 185.8 83.1 203.8 83.1 C 215.3 83.1 224.5 79.1 232 73.1 L 225.2 56.3 Z" id="path14" style="fill:#ffffff"/>
  <path d="M 266.1 14.2 L 230.2 82.2 L 252.2 82.2 L 257.4 71.8 L 280.7 71.8 L 282.3 82.2 L 303.3 82.2 L 291.4 14.2 L 266.1 14.2 Z M 265.4 55.7 L 275.4 35.7 L 278.4 55.7 L 265.4 55.7 Z" id="path18" style="fill:#ffffff"/>
  <path d="M 351 14.2 L 319.6 14.2 L 307.6 82.2 L 340.1 82.2 C 362.4 82.2 380.3 68.1 380.3 42.7 C 380.3 24.9 368.2 14.2 351 14.2 L 351 14.2 Z M 342 63.2 L 332.4 63.2 L 337.7 33.2 L 347.3 33.2 C 353.7 33.2 356.8 37.4 356.8 44.1 C 356.7 55.3 351.9 63.2 342 63.2 Z" id="path22" style="fill:#ffffff"/>
  <polygon points="434.7 56.7 437.9 39.2 410.8 39.2 411.8 33.1 446 33.1 449.4 14.2 394.9 14.2 382.9 82.2 437.4 82.2 440.7 63.2 406.5 63.2 407.7 56.7" id="polygon26" style="fill:#ffffff"/>
</svg>
